X:239
T:score41
L:1/16
Q:1/4=96
M:2/4
I:linebreak $
K:Eb
 z2 .B.c (ed).c.B | .d2 z2 !>!d4- | d2.c.d (ed).c.d | .c2 z2 !>!B4- | B2.B.B (cB).A.G |$ %5
 .B2 z2 !>!E4- | E8- | E2 z2 z4 |] %8
